X: 20893
Q: "Slow and with feeling."
M: 6/8
L: 1/16
K: C
EF |\
(FG)(AB)(cd e3)fd2 | c3Bed c4 |]
(cd) |\
e3dc2 B2c2d2 | d2c2A2 ^F2G2G2 |\
c3dc2 B2A2d2 | G2e2d2 c4 |]


